public/images/logo.svg

<?xml version="1.0" encoding="UTF-8"?>
<svg width="649px" height="653px" viewBox="0 0 649 653" version="1.1" xmlns="http://www.w3.org/2000/svg" xmlns:xlink="http://www.w3.org/1999/xlink">
    <title>sphere</title>
    <defs>
        <linearGradient x1="117.440831%" y1="74.0075398%" x2="37.7451593%" y2="113.738816%" id="linearGradient-1">
            <stop stop-color="#05C3EF" offset="0%"></stop>
            <stop stop-color="#FE43BC" offset="100%"></stop>
        </linearGradient>
        <linearGradient x1="131.150996%" y1="98.2123895%" x2="48.4430142%" y2="139.183336%" id="linearGradient-2">
            <stop stop-color="#05C3EF" offset="0%"></stop>
            <stop stop-color="#FE43BC" offset="100%"></stop>
        </linearGradient>
    </defs>
    <g id="Page-1" stroke="none" stroke-width="1" fill="none" fill-rule="evenodd" opacity="0.75">
        <g id="sphere" fill-rule="nonzero">
            <path d="M472.697815,619.844971 C316.167053,697.392334 126.410828,633.363281 48.863617,476.833008 C30.834839,440.441406 20.457855,402.253174 17.117188,364.097168 C16.839478,360.917725 16.609589,357.737793 16.424438,354.55835 C26.200226,311.313965 -25.396851,250.668457 17.891327,222.039307 C30.883667,212.010742 45.118073,255.246094 62.314728,231.856689 C62.95459,228.826416 63.333008,225.773193 63.496796,222.702637 C65.138641,192.000244 45.441559,159.618164 52.615234,127.717529 C53.673187,124.899902 55.143097,122.316406 57.130829,119.984863 C74.461761,104.215088 97.376373,135.966553 118.513855,136.99292 C121.730408,137.712158 124.822876,138.054932 127.789185,137.771729 C130.757507,137.48877 133.599731,136.579346 136.244568,134.669922 C153.55011,126.097168 133.520386,92.916992 159.341309,79.682861 C162.316772,80.294189 165.184387,81.218994 167.940125,82.248535 C178.966125,86.366211 188.22113,92.158447 196.863708,90.270996 C225.678406,83.179688 209.988281,44.257568 216.534302,19.709717 C217.180237,16.554199 218.00116,13.745605 219.058105,11.327637 C220.114014,8.90918 221.400818,6.874512 223.085388,5.441406 C246.184143,-13.186035 271.956238,24.33374 299.099609,32.940674 C302.677307,34.403564 306.127808,35.842285 309.494934,37.27417 C336.433777,48.726807 358.050415,59.695557 363.701233,11.773682 C366.272888,8.197998 369.195435,5.937256 372.161743,4.345703 C407.753357,-14.749756 439.252625,40.278076 476.038513,54.656982 C479.480896,56.410156 482.891724,58.226074 486.271057,60.105957 C540.342102,90.174316 586.167297,136.381104 615.70929,196.011475 C693.25647,352.541016 629.227539,542.29834 472.697815,619.844971 Z" id="Path" fill="url(#linearGradient-1)"></path>
            <path d="M39.12442,84.882568 C32.072845,88.375977 23.523834,85.491455 20.029572,78.439453 C16.536346,71.387695 19.421265,62.839355 26.47287,59.345459 C33.525482,55.852295 42.073456,58.736572 45.566681,65.78833 C49.059937,72.839844 46.176025,81.388916 39.12442,84.882568 Z" id="path1" fill="url(#linearGradient-2)"></path>
        </g>
    </g>
</svg>

<svg xmlns="http://www.w3.org/2000/svg" viewBox="0 0 649 653">
  <defs>
    <linearGradient id="a" x1="117.441%" x2="37.745%" y1="74.008%" y2="113.739%">
      <stop offset="0%" stop-color="#05C3EF"/>
      <stop offset="100%" stop-color="#FE43BC"/>
    </linearGradient>
    <linearGradient id="b" x1="131.151%" x2="48.443%" y1="98.212%" y2="139.183%">
      <stop offset="0%" stop-color="#05C3EF"/>
      <stop offset="100%" stop-color="#FE43BC"/>
    </linearGradient>
  </defs>

  <g fill="none" fill-rule="nonzero" opacity=".75">
    <path fill="url(#a)" d="M472.698 619.845c-156.53 77.547-346.287 13.518-423.834-143.012-18.03-36.392-28.406-74.58-31.747-112.736-.278-3.18-.507-6.36-.693-9.539 9.776-43.244-41.82-103.89 1.467-132.519 12.993-10.028 27.227 33.207 44.424 9.818a59.585 59.585 0 0 0 1.182-9.154c1.642-30.703-18.055-63.085-10.882-94.985 1.058-2.818 2.528-5.402 4.516-7.733 17.33-15.77 40.245 15.982 61.383 17.008 3.216.72 6.309 1.062 9.275.779 2.969-.283 5.81-1.193 8.456-3.102 17.305-8.573-2.725-41.753 23.096-54.987 2.976.611 5.843 1.536 8.6 2.566 11.025 4.117 20.28 9.91 28.923 8.022 28.814-7.091 13.124-46.013 19.67-70.561.646-3.156 1.467-5.964 2.524-8.382 1.056-2.419 2.343-4.453 4.027-5.887 23.1-18.627 48.871 18.893 76.015 27.5a806.665 806.665 0 0 1 10.395 4.333c26.939 11.453 48.555 22.422 54.206-25.5 2.572-3.576 5.494-5.837 8.46-7.428 35.592-19.096 67.092 35.932 103.878 50.311a316.681 316.681 0 0 1 10.232 5.449c54.071 30.068 99.896 76.275 129.438 135.905 77.547 156.53 13.519 346.287-143.011 423.834Z"/>
    <path fill="url(#b)" d="M39.124 84.883c-7.051 3.493-15.6.608-19.094-6.444-3.494-7.051-.609-15.6 6.443-19.094 7.052-3.493 15.6-.608 19.094 6.443 3.493 7.052.609 15.6-6.443 19.095Z"/>
  </g>
</svg>
